X: 43
T: Hand Game Guessing Song (d)
N: Derived from pawnee43.krn
O: Oklahoma, U.S.A.
N: from Pawnee Music by Frances Densmore, 1926
Z: transcribed to **kern format by David Huron, August 2000
C: Skidi and Chaui Bands, 1919
L: 1/8
M: 2/4
Q: 1/4=88
K: F clef=bass
%%linebreak <none>
G, G, B, A,[M:3/4] [I:setbarnb 2]| 
G, G, G, z G, G, | 
C2B, B, B, G,[M:2/4] | 
B, B, B, G,[M:3/4] | 
F, F, F, D, F, F, | 
G,2F, F, F, D,[M:2/4] | 
F, F, F, D, | 
C, C, C, z | 
C, C,C,2 | 
C, C, C, z | 
F, F, F, D, | 
D, D, D, C,/ z/ | 
D, D, F, D, | 
C, C, C, z | 
C, C,C,2 | 
C, C, C, z :|]  



